X: 18263
T: Humours Of Newcastle, The
R: reel
M: 4/4
K: Dmajor
D3E D2 dB|A2 FD EA,CE|DFEF D2 dB|AFEF DA,B,C|
DFEF D2 dB|ADFD EA,CE|DFEF D2 dB|AFEF D4||
d2 fd Adfd|A2 cA eAcA|d2 fd Adfd|eaag fddc|
d2 fd Adfd|A2 cA eAcA|dfeg faed|cAGE D4||

